X:1
T:Meine Seele ist stille
T:Meine Seele ist stille
T:Jakob Heinrich Lützel
T:CPDL   —   Creative Commons Attribution Non Commercial 3.0
T:CPDL   —   Creative Commons Attribution Non Commercial 3.0
T:CPDL   —   Creative Commons Attribution Non Commercial 3.0
T:CPDL   —   Creative Commons Attribution Non Commercial 3.0
C:Jakob Heinrich Lützel
Z:CPDL   —   Creative Commons Attribution Non Commercial 3.0
%%score [ 1 2 3 4 ]
L:1/8
Q:1/4=80
M:4/4
K:E
V:1 treble nm="Sopran"
V:2 treble nm="Alt"
V:3 treble-8 nm="Tenor"
V:4 bass nm="Bass"
V:1
"^Langsam"!p! E>F | G4!<(! G2 A2!<)! |!>(! F4!>)! E2 G2 |!<(! (G2!<)! c2)!>(! B2!>)! A2 | %4
w: Mei- ne|See- le ist|stil- le, ist|stil- * le zu|
 G4 z2!<(! B2!<)! | e4 d3 d | c4 B4 | !>!A4 G3 G | !breath!F6!p!!<(! F>F!<)! | G4 G2 F2 | %10
w: Gott, zu|Gott, der mir|hilft, zu|Gott, der mir|hilft. Mei- ne|See- le ist|
 !^!F4 E2 D2 |!<(! E4!<)! F2 F2 | G6!mf! F2 |"^cresc." G4 ^A3 A | B4 (B2 e2) |!f! d4 c3!>(! c!>)! | %16
w: stil- le, ist|stil- le zu|Gott, zu|Gott, der mir|hilft, zu _|Gott, der mir|
 B6 z2 | z2!p! B>!<(!B B2 e2!<)! |!>(! d4 B2!>)! z2 | z8 | z4 z2!p! F>F | G4!<(! B2 B2!<)! | %22
w: hilft.|Mei- ne Seel' ist|stil- le,||mei- ne|See- le ist|
!>(! A4 G2!>)! G2 | !>!F4"^dim." F3 F | E6 z2 | z8 | z4 z2!p! B2 | e4!<(! e2!<)!!>(! e2!>)! | %28
w: stil- le zu|Gott, der mir|hilft.||zu|Gott, der mir|
 !fermata!e6 |] %29
w: hilft.|
V:2
!p! E>E | E4!<(! E2 E2!<)! |!>(! D4!>)! E2 E2 |!<(! E4!<)!!>(! D2!>)! D2 | E2 G2!<(! F2 E2!<)! | %5
w: Mei- ne|See- le ist|stil- le, ist|stil- le zu|Gott, ist still zu|
 (E2 G2) G3 G | (E2 F2 G2) E2 | (!>!E2 D2) E3 E | !breath!D6!p!!<(! D>D!<)! | E4 E2 D2 | %10
w: Gott, _ der mir|hilft, _ _ zu|Gott, _ der mir|hilft. Mei- ne|See- le ist|
 !^!D4 C2 ^B,2 | (C2 E4) D2 | E2 B,2 E2!mf! F2 |"^cresc." (F2 E2) F2 F2 | F4 G4 | %15
w: stil- le, ist|still _ zu|Gott, zu Gott, zu|Gott, _ der mir|hilft, zu|
!f! F2 F4!>(! E2!>)! | D6 z2 | z2!p! D>!<(!D E2 G2!<)! |!>(! F4 D2!>)! z2 | z4 !>!G3 F | %20
w: Gott, der mir|hilft.|Mei- ne Seel' ist|stil- le,|der mir|
 F6!p! D>D | E4!<(! F2 E2!<)! |!>(! E4 E2!>)! E2 | !>!E4"^dim." D3 D | !breath!E6!p! E>E | %25
w: hilft, mei- ne|See- le ist|stil- le zu|Gott, der mir|hilft. Mei- ne|
 !>!A4 A2 A2 | G4 E2 G2 | A4!<(! E2!<)!!>(! F2!>)! | !fermata!G6 |] %29
w: See- le ist|stil- le zu|Gott, der mir|hilft.|
V:3
!p! G>A | B4!<(! B2 c2!<)! |!>(! A4!>)! G2 B2 |!<(! c4!<)!!>(! F2!>)! B2 | B2 B2!<(! A2 G2!<)! | %5
w: Mei- ne|See- le ist|stil- le, ist|stil- le zu|Gott, ist still zu|
 G4 B3 B | (c2 d2 e2) B2 | (!>!c2 B2) B3 ^A | !breath!B6!p!!<(! B>B!<)! | B4 B2 B2 | !^!A4 G2 G2 | %11
w: Gott, der mir|hilft, _ _ zu|Gott, _ der mir|hilft. Mei- ne|See- le ist|stil- le, ist|
 G4 B2 B2 | B6!mf! B2 |"^cresc." B4 c3 c | B2 B4 B2 |!f! B4 ^A2!>(! A2!>)! | !breath!B6!p! B>B | %17
w: stil- le zu|Gott, zu|Gott, der mir|hilft, zu dem|Gott, der mir|hilft. Mei- ne|
 B4!<(! G2 E2!<)! |!>(! B4 B2!>)! z2 | z4 !>!e3 d | d6!p! B>B | B4!<(! B2 G2!<)! | %22
w: See- le ist|stil- le,|der mir|hilft, mei- ne|See- le ist|
!>(! A4 B2!>)! B2 | (!>!c2 =c2)"^dim." B2 A2 | !breath!G6!p! G>G | !>!c4 c2 c2 | B4 G2 e2 | %27
w: stil- le zu|Gott, _ der mir|hilft. Mei- ne|See- le ist|stil- le zu|
 c4!<(! c2!<)!!>(! =c2!>)! | !fermata!B6 |] %29
w: Gott, der mir|hilft.|
V:4
!p! E,>E, | E,4!<(! E,2 E,2!<)! |!>(! E,4!>)! E,4 |!<(! (C,2!<)! A,,2)!>(! B,,2!>)! B,,2 | %4
w: Mei- ne|See- le ist|stil- le,|stil- * le zu|
 E,6!<(! E,2!<)! | C,4 G,4 | (A,4 G,2) G,2 | !>!F,4 E,4 | !breath!B,,4!p! B,,2 B,,2 | %9
w: Gott, zu|Gott, der|hilft, _ zu|Gott, der|hilft. Mei- ne|
 E,4 E,2 B,,2 | !^!^B,,4 C,2 G,,2 | C,4 B,,4 | E,6!mf! D,2 |"^cresc." E,4 E,4 | D,4 E,2 E,2 | %15
w: See- le ist|stil- le, ist|still zu|Gott, zu|Gott, der|hilft, zu dem|
!f! F,4 F,2!>(! F,2!>)! | B,,6 z2 | z8 | z4 z2!p! B,,2 | B,,8- | B,,6 z2 | %21
w: Gott, der mir|hilft.||zu|Gott,|_|
 z2!p! E,>E,!<(! D,2 =D,2!<)! |!>(! C,4 B,,2!>)! B,,2 | !>!A,,4"^dim." B,,4 | %24
w: mei- ne Seel' ist|stil- le zu|Gott, der|
 !breath!E,4!p! E,2 E,2 | !>!E,4 E,2 E,2 | E,4 E,4 | E,8- | !fermata!E,6 |] %29
w: hilft. Mei- ne|See- le ist|still zu|Gott|_|

